X:633
T: WANN I HALD FRUA AFSTEH
N: E0583
O: Europa, Mitteleuropa, Oesterreich
R: Liebes - Lied
M: 3/4
L: 1/16
K: G
 | G4B2D2G2B2 | d4g2G2B4
A4c2D2F4 | G4B2D2G4
G4B2D2G2B2 | d4g2G2B4
A2ccA2 | G2
BBG2 | A2ccA2 | G2
BBG2 | A2ccA2 | G4
dd | g2dBcA | G4z2

